X: 15903
T: Grand Canal, The
R: reel
M: 4/4
K: Gmajor
ABcA GE~E2|GEAE GEEG|ABcA GE~E2|cdec dcAG|
ABcA GE~E2|GEAE GEEG|ABcA GE~E2|cdec d2 cd||
eaag edde|cdef gfed|eaag e~d3|edcA dcAG|
Aaag e~d3|cdef gfed|efge d2 cd|edcA dcAG||

